assets/img/crypto.svg

<svg width="369" height="291" viewBox="0 0 369 291" fill="none" xmlns="http://www.w3.org/2000/svg">
  <g clip-path="url(#clip0)">
    <path fill-rule="evenodd" clip-rule="evenodd" d="M84.5625 169.125C37.8576 169.125 0 131.267 0 84.5625C0 37.8576 37.8576 0 84.5625 0C131.267 0 169.125 37.8576 169.125 84.5625C169.125 131.267 131.267 169.125 84.5625 169.125ZM126.812 85.7199L87.1945 21.1406L47.5664 85.7252L87.1945 108.732L126.812 85.7199ZM126.844 93.1033L87.1945 116.099L47.5664 93.1086L87.1945 147.958L126.844 93.1033Z" fill="#E6E6E6"/>
    <path d="M87.1949 21.1406V68.02L126.818 85.7252L87.1949 21.1406ZM87.1949 116.104V147.958L126.844 93.1033L87.1949 116.104Z" fill="white"/>
    <path d="M87.1949 108.732L126.818 85.7252L87.1949 68.0305V108.732Z" fill="white"/>
    <path d="M47.5664 85.7252L87.1945 108.732V68.0305L47.5664 85.7252Z" fill="white"/>
  </g>
  <g clip-path="url(#clip1)">
    <path d="M294.747 193.042C321.671 193.042 343.495 214.865 343.495 241.789C343.495 268.713 321.671 290.536 294.747 290.536C267.824 290.536 246 268.713 246 241.789C246 214.865 267.824 193.042 294.747 193.042ZM298.836 242.017L298.358 247.105C304.32 251.852 305.124 255.377 304.21 260.078C302.142 267.36 295.829 268.122 293.142 267.659C290.065 267.095 288.773 266.937 286.116 263.817C284.835 262.185 284.068 260.211 283.91 258.143C283.752 256.075 284.211 254.006 285.229 252.2L285.266 252.139L286.613 258.537L290.482 257.769L287.953 244.29L274.944 247.374L275.986 251.575L281.314 250.539L281.263 250.664C281.034 251.225 280.105 253.583 279.828 255.423C278.036 266.659 287.545 271.747 291.497 272.015C299.336 272.588 303.887 269.2 306.252 265.608C310.639 258.418 308.448 253.098 307.175 250.393C305.511 246.987 298.836 242.017 298.836 242.017ZM296.521 222.762H292.337V261.166H296.521V222.759V222.762ZM296.429 211.349C288.569 210.981 284.111 214.487 281.851 218.143C277.646 225.456 279.977 230.708 281.333 233.368C283.088 236.728 289.894 241.521 289.894 241.521L290.232 236.424C284.139 231.845 283.243 228.347 284.038 223.618C285.912 216.279 292.2 215.365 294.906 215.752C297.98 216.233 299.281 216.361 302.023 219.408C303.348 221.004 304.17 222.957 304.383 225.021C304.596 227.084 304.191 229.164 303.22 230.998L303.187 231.058L301.673 224.709L297.834 225.574L300.713 238.98L313.628 235.555L312.473 231.375L307.172 232.554C307.172 232.554 308.272 229.739 308.531 227.625C310.027 216.343 300.378 211.514 296.429 211.349Z" fill="#E6E6E6"/>
  </g>
  <g clip-path="url(#clip2)">
    <path fill-rule="evenodd" clip-rule="evenodd" d="M310.917 123C278.836 123 252.833 96.9968 252.833 64.9166C252.833 32.8365 278.836 6.83331 310.917 6.83331C342.997 6.83331 369 32.8365 369 64.9166C369 96.9968 342.997 123 310.917 123ZM337.014 57.7288C338.154 50.1199 332.357 46.0287 324.436 43.2988L327.006 32.989L320.733 31.428L318.228 41.4655C316.58 41.0517 314.888 40.6669 313.2 40.2821L315.723 30.1792L309.45 28.6146L306.88 38.9207C305.515 38.6085 304.172 38.3036 302.872 37.9769L302.879 37.9442L294.225 35.7842L292.555 42.4856C292.555 42.4856 297.213 43.5529 297.115 43.6182C299.656 44.2535 300.113 45.9343 300.037 47.2702L297.111 59.0139C297.285 59.0575 297.51 59.1228 297.764 59.2208L297.1 59.0575L292.998 75.5096C292.686 76.2792 291.898 77.4372 290.119 76.998C290.185 77.0887 285.56 75.8617 285.56 75.8617L282.445 83.0423L290.613 85.0788C292.13 85.46 293.619 85.8593 295.082 86.2332L292.486 96.6592L298.755 98.2202L301.326 87.9104C303.039 88.3714 304.702 88.7998 306.328 89.2064L303.765 99.4726L310.038 101.034L312.634 90.6294C323.336 92.6551 331.38 91.8383 334.767 82.1601C337.497 74.3697 334.633 69.8719 329.002 66.9423C333.104 65.9984 336.19 63.3012 337.014 57.7288ZM322.675 77.8329C320.74 85.627 307.617 81.4123 303.362 80.3559L306.811 66.543C311.065 67.6066 324.704 69.7085 322.675 77.8329ZM324.617 57.6163C322.849 64.7061 311.929 61.1013 308.39 60.2192L311.512 47.6949C315.051 48.5771 326.461 50.2216 324.617 57.6163Z" fill="#E6E6E6"/>
  </g>
  <defs>
    <clipPath id="clip0">
      <rect width="169.125" height="169.125" fill="white"/>
    </clipPath>
    <clipPath id="clip1">
      <rect width="97.4947" height="97.4947" fill="white" transform="translate(246 193.042)"/>
    </clipPath>
    <clipPath id="clip2">
      <rect width="116.167" height="116.167" fill="white" transform="translate(252.833 6.83331)"/>
    </clipPath>
  </defs>
</svg>

<svg xmlns="http://www.w3.org/2000/svg" width="369" height="291" fill="none"><g clip-path="url(#A)"><path fill-rule="evenodd" d="M84.563 169.125C37.858 169.125 0 131.267 0 84.563S37.858 0 84.563 0s84.563 37.858 84.563 84.563-37.858 84.563-84.562 84.563zm42.25-83.405L87.195 21.141 47.566 85.725l39.628 23.007 39.617-23.012zm.032 7.383l-39.649 22.996-39.628-22.99 39.628 54.849 39.649-54.855z" fill="#e6e6e6"/><g fill="#fff"><path d="M87.195 21.141V68.02l39.623 17.705-39.623-64.585zm0 94.963v31.854l39.649-54.855-39.649 23.001z"/><path d="M87.195 108.732l39.623-23.007-39.623-17.695v40.701z"/><path d="M47.566 85.725l39.628 23.007V68.031L47.566 85.725z"/></g></g><g clip-path="url(#B)"><path d="M294.747 193.042c26.924 0 48.748 21.823 48.748 48.747s-21.824 48.747-48.748 48.747S246 268.713 246 241.789s21.824-48.747 48.747-48.747zm4.089 48.975l-.478 5.088c5.962 4.747 6.766 8.272 5.852 12.973-2.068 7.282-8.381 8.044-11.068 7.581-3.077-.564-4.369-.722-7.026-3.842a10.48 10.48 0 0 1-.887-11.617l.037-.061 1.347 6.398 3.869-.768-2.529-13.479-13.009 3.084 1.042 4.201 5.328-1.036-.051.125c-.229.561-1.158 2.919-1.435 4.759-1.792 11.236 7.717 16.324 11.669 16.592 7.839.573 12.39-2.815 14.755-6.407 4.387-7.19 2.196-12.51.923-15.215-1.664-3.406-8.339-8.376-8.339-8.376zm-2.315-19.255h-4.184v38.404h4.184v-38.407.003zm-.092-11.413c-7.86-.368-12.318 3.138-14.578 6.794-4.205 7.313-1.874 12.565-.518 15.225 1.755 3.36 8.561 8.153 8.561 8.153l.338-5.097c-6.093-4.579-6.989-8.077-6.194-12.806 1.874-7.339 8.162-8.253 10.868-7.866 3.074.481 4.375.609 7.117 3.656a10.47 10.47 0 0 1 2.36 5.613c.213 2.063-.192 4.143-1.163 5.977l-.033.06-1.514-6.349-3.839.865 2.879 13.406 12.915-3.425-1.155-4.18-5.301 1.179s1.1-2.815 1.359-4.929c1.496-11.282-8.153-16.111-12.102-16.276z" fill="#e6e6e6"/></g><g clip-path="url(#C)"><path fill-rule="evenodd" d="M310.917 123c-32.081 0-58.084-26.003-58.084-58.083s26.003-58.083 58.084-58.083S369 32.837 369 64.917 342.997 123 310.917 123zm26.097-65.271c1.14-7.609-4.657-11.7-12.578-14.43l2.57-10.31-6.273-1.561-2.505 10.037-5.028-1.183 2.523-10.103-6.273-1.565-2.57 10.306-4.008-.944.007-.033-8.654-2.16-1.67 6.701s4.658 1.067 4.56 1.133c2.541.635 2.998 2.316 2.922 3.652l-2.926 11.744c.174.044.399.109.653.207l-.664-.163-4.102 16.452c-.312.77-1.1 1.928-2.879 1.488.066.091-4.559-1.136-4.559-1.136l-3.115 7.181 8.168 2.037 4.469 1.154-2.596 10.426 6.269 1.561 2.571-10.31 5.002 1.296-2.563 10.266 6.273 1.561 2.596-10.405c10.702 2.026 18.746 1.209 22.133-8.469 2.73-7.79-.134-12.288-5.765-15.218 4.102-.944 7.188-3.641 8.012-9.214zm-14.339 20.104c-1.935 7.794-15.058 3.579-19.313 2.523l3.449-13.813c4.254 1.064 17.893 3.165 15.864 11.29zm1.942-20.217c-1.768 7.09-12.688 3.485-16.227 2.603l3.122-12.524c3.539.882 14.949 2.527 13.105 9.921z" fill="#e6e6e6"/></g><defs><clipPath id="A"><path fill="#fff" d="M0 0h169.125v169.125H0z"/></clipPath><clipPath id="B"><path fill="#fff" transform="translate(246 193.042)" d="M0 0h97.495v97.495H0z"/></clipPath><clipPath id="C"><path fill="#fff" transform="translate(252.833 6.833)" d="M0 0h116.167v116.167H0z"/></clipPath></defs></svg>
